X: 16355
T: Gundy Bear's
R: waltz
M: 3/4
K: Dmajor
|:AG|"D"F2 A2 de|f2d2A2|"G"Bc ed Bd|"D"A2F2 z E|
D2F2A2|1 "Em"B2G2B2|"A7"A6-|A4:|2 "Em"B2E2"A7"F2|"D"D6-|D4||
|:A2|"D"f2d2A2|"A"e2c2A2|"G"GA BA GB|"D"A2F2 z E|
D2F2A2|1 "A"e2c2B2|"A7"A6-|A4:|2 "A7"e2d2c2|"D"d6-|d6||

